X: 09080
T: MRS. MARSDEN'S JIG
C: Bob McQuillen 16 Mar 92
B: Bob's Note Book 9 #80
R: jig
Z: 2018 John Chambers <jc:trillian.mit.edu>
M: 6/8
L: 1/8
K: C
A \
| Gce dcA | GEG c2A | Gce dcd | efe d2e |
| gec dcA | GEG ceg | fed ece | dcB c2 :|
|: A \
| Gce geg | age g2e | f3 e2g | gfe d2A |
| Gce geg | age gec | ABc Gce | dcB c2 :|
%%begintext align
%% Fifteen years ago I wrote
%% Mary Jane Marsden a tune by way of thanking her for all
%% her hard work in keeping the Francestown dances going.
%% She could retire and go to the Bahamas on 10% of
%% all the ticket money she's collected over the years! This
%% tune says it once again: "Thanks, Mary Jane!"
%%endtext

%%sep 1 1 500

%%sep 1 1 500

